;START_OF_HEADER
;HEADER_VERSION:0.1
;FLAVOR:Griffin
;GENERATOR.NAME:Cura_SteamEngine
;GENERATOR.VERSION:5.2.2
;GENERATOR.BUILD_DATE:2023-01-24
;TARGET_MACHINE.NAME:Ultimaker 3
;EXTRUDER_TRAIN.0.INITIAL_TEMPERATURE:200
;EXTRUDER_TRAIN.0.MATERIAL.VOLUME_USED:14669
;EXTRUDER_TRAIN.0.MATERIAL.GUID:506c9f0d-e3aa-4bd4-b2d2-23e2425b1aa9
;EXTRUDER_TRAIN.0.NOZZLE.DIAMETER:0.4
;EXTRUDER_TRAIN.0.NOZZLE.NAME:AA 0.4
;BUILD_PLATE.INITIAL_TEMPERATURE:60
;PRINT.TIME:8616
;PRINT.GROUPS:1
;PRINT.SIZE.MIN.X:9
;PRINT.SIZE.MIN.Y:6
;PRINT.SIZE.MIN.Z:0.2
;PRINT.SIZE.MAX.X:154.552
;PRINT.SIZE.MAX.Y:161.485
;PRINT.SIZE.MAX.Z:5
;SLICE_UUID:586284ff-c210-4a1d-8d82-a314c8bd97e9
;END_OF_HEADER
;Generated with Cura_SteamEngine 5.2.2
T0
M82 ;absolute extrusion mode

G92 E0
M109 S200
G0 F15000 X9 Y6 Z2
G280
G1 F1500 E-6.5
;LAYER_COUNT:33
;LAYER:0
M106 S255
M204 S1000
M205 X20 Y20
G0 F15000 X79.974 Y56.326 Z0.2
;TYPE:SKIRT
G1 F1500 E0
G1 F1350 X80.453 Y55.752 E0.00938
G1 X80.99 Y55.231 E0.01876
G1 X81.58 Y54.772 E0.02813
G1 X82.216 Y54.377 E0.03752
G1 X82.89 Y54.053 E0.0469
G1 X83.595 Y53.803 E0.05628
G1 X84.323 Y53.629 E0.06567
G1 X85.065 Y53.534 E0.07505
G1 X85.582 Y53.515 E0.08153
G1 X147.552 Y53.515 E0.85866
G1 X148.299 Y53.555 E0.86804
G1 X149.037 Y53.674 E0.87742
G1 X149.759 Y53.872 E0.88681
G1 X150.455 Y54.145 E0.89618
G1 X151.118 Y54.492 E0.90556
G1 X151.741 Y54.907 E0.91495
G1 X152.315 Y55.386 E0.92433
G1 X152.836 Y55.923 E0.93371
G1 X153.295 Y56.513 E0.94308
G1 X153.69 Y57.149 E0.95247
G1 X154.014 Y57.823 E0.96185
G1 X154.264 Y58.528 E0.97123
G1 X154.438 Y59.256 E0.98062
G1 X154.533 Y59.998 E0.99
G1 X154.552 Y60.515 E0.99649
G1 X154.552 Y154.485 E2.17491
G1 X154.512 Y155.232 E2.18429
G1 X154.393 Y155.97 E2.19366
G1 X154.195 Y156.692 E2.20305
G1 X153.922 Y157.388 E2.21242
G1 X153.575 Y158.051 E2.22181
G1 X153.16 Y158.674 E2.2312
G1 X152.681 Y159.248 E2.24057
G1 X152.144 Y159.769 E2.24995
G1 X151.554 Y160.228 E2.25933
G1 X150.918 Y160.623 E2.26872
G1 X150.244 Y160.947 E2.2781
G1 X149.539 Y161.197 E2.28748
G1 X148.811 Y161.371 E2.29686
G1 X148.069 Y161.466 E2.30624
G1 X147.552 Y161.485 E2.31273
G1 X85.582 Y161.485 E3.08986
G1 X84.835 Y161.445 E3.09924
G1 X84.097 Y161.326 E3.10861
G1 X83.375 Y161.128 E3.118
G1 X82.679 Y160.855 E3.12738
G1 X82.016 Y160.508 E3.13676
G1 X81.393 Y160.093 E3.14615
G1 X80.819 Y159.614 E3.15552
G1 X80.298 Y159.077 E3.16491
G1 X79.839 Y158.487 E3.17428
G1 X79.444 Y157.851 E3.18367
G1 X79.12 Y157.177 E3.19305
G1 X78.87 Y156.472 E3.20243
G1 X78.696 Y155.744 E3.21181
G1 X78.601 Y155.002 E3.2212
G1 X78.582 Y154.485 E3.22768
G1 X78.582 Y60.515 E4.4061
G1 X78.622 Y59.768 E4.41548
G1 X78.741 Y59.03 E4.42486
G1 X78.939 Y58.308 E4.43425
G1 X79.212 Y57.612 E4.44362
G1 X79.559 Y56.949 E4.45301
G1 X79.974 Y56.326 E4.46239
G0 F15000 X80.371 Y56.465
G1 F1350 X80.847 Y55.917 E4.4715
G1 X81.381 Y55.424 E4.48061
G1 X81.966 Y54.994 E4.48971
G1 X82.595 Y54.63 E4.49883
G1 X83.26 Y54.337 E4.50794
G1 X83.953 Y54.119 E4.51705
G1 X84.665 Y53.979 E4.52615
G1 X85.582 Y53.915 E4.53768
G1 X147.552 Y53.915 E5.3148
G1 X148.277 Y53.955 E5.32391
G1 X148.994 Y54.074 E5.33302
G1 X149.693 Y54.272 E5.34214
G1 X150.366 Y54.545 E5.35124
G1 X151.005 Y54.89 E5.36035
G1 X151.602 Y55.304 E5.36946
G1 X152.15 Y55.78 E5.37856
G1 X152.643 Y56.314 E5.38768
G1 X153.073 Y56.899 E5.39678
G1 X153.437 Y57.528 E5.40589
G1 X153.73 Y58.193 E5.41501
G1 X153.948 Y58.886 E5.42412
G1 X154.088 Y59.598 E5.43322
G1 X154.152 Y60.515 E5.44475
G1 X154.152 Y154.485 E6.62316
G1 X154.112 Y155.21 E6.63227
G1 X153.993 Y155.927 E6.64138
G1 X153.795 Y156.626 E6.65049
G1 X153.522 Y157.299 E6.6596
G1 X153.177 Y157.938 E6.66871
G1 X152.763 Y158.535 E6.67782
G1 X152.287 Y159.083 E6.68692
G1 X151.753 Y159.576 E6.69604
G1 X151.168 Y160.006 E6.70514
G1 X150.539 Y160.37 E6.71425
G1 X149.874 Y160.663 E6.72337
G1 X149.181 Y160.881 E6.73248
G1 X148.469 Y161.021 E6.74158
G1 X147.552 Y161.085 E6.7531
G1 X85.582 Y161.085 E7.53023
G1 X84.857 Y161.045 E7.53934
G1 X84.14 Y160.926 E7.54845
G1 X83.441 Y160.728 E7.55756
G1 X82.768 Y160.455 E7.56667
G1 X82.129 Y160.11 E7.57578
G1 X81.532 Y159.696 E7.58489
G1 X80.984 Y159.22 E7.59399
G1 X80.491 Y158.686 E7.6031
G1 X80.061 Y158.101 E7.61221
G1 X79.697 Y157.472 E7.62132
G1 X79.404 Y156.807 E7.63044
G1 X79.186 Y156.114 E7.63955
G1 X79.046 Y155.402 E7.64865
G1 X78.982 Y154.485 E7.66017
G1 X78.982 Y60.515 E8.83859
G1 X79.022 Y59.79 E8.8477
G1 X79.141 Y59.073 E8.85681
G1 X79.339 Y58.374 E8.86592
G1 X79.612 Y57.701 E8.87503
G1 X79.957 Y57.062 E8.88414
G1 X80.371 Y56.465 E8.89325
G0 F15000 X80.767 Y56.609
G1 F1350 X81.241 Y56.088 E8.90208
G1 X81.771 Y55.624 E8.91091
G1 X82.35 Y55.224 E8.91974
G1 X82.971 Y54.892 E8.92857
G1 X83.625 Y54.632 E8.93739
G1 X84.305 Y54.448 E8.94623
G1 X85.001 Y54.342 E8.95506
G1 X85.582 Y54.315 E8.96235
G1 X147.552 Y54.315 E9.73948
G1 X148.255 Y54.355 E9.74831
G1 X148.949 Y54.474 E9.75714
G1 X149.624 Y54.672 E9.76596
G1 X150.273 Y54.944 E9.77478
G1 X150.887 Y55.289 E9.78362
G1 X151.458 Y55.7 E9.79244
G1 X151.979 Y56.174 E9.80127
G1 X152.443 Y56.704 E9.81011
G1 X152.843 Y57.283 E9.81893
G1 X153.175 Y57.904 E9.82776
G1 X153.435 Y58.558 E9.83659
G1 X153.619 Y59.238 E9.84542
G1 X153.725 Y59.934 E9.85425
G1 X153.752 Y60.515 E9.86154
G1 X153.752 Y154.485 E11.03996
G1 X153.712 Y155.188 E11.04879
G1 X153.593 Y155.882 E11.05762
G1 X153.395 Y156.557 E11.06644
G1 X153.123 Y157.206 E11.07527
G1 X152.778 Y157.82 E11.0841
G1 X152.367 Y158.391 E11.09292
G1 X151.893 Y158.912 E11.10176
G1 X151.363 Y159.376 E11.11059
G1 X150.784 Y159.776 E11.11941
G1 X150.163 Y160.108 E11.12825
G1 X149.509 Y160.368 E11.13707
G1 X148.829 Y160.552 E11.14591
G1 X148.133 Y160.658 E11.15473
G1 X147.552 Y160.685 E11.16203
G1 X85.582 Y160.685 E11.93915
G1 X84.879 Y160.645 E11.94798
G1 X84.185 Y160.526 E11.95681
G1 X83.51 Y160.328 E11.96564
G1 X82.861 Y160.056 E11.97446
G1 X82.247 Y159.711 E11.98329
G1 X81.676 Y159.3 E11.99212
G1 X81.155 Y158.826 E12.00095
G1 X80.691 Y158.296 E12.00978
G1 X80.291 Y157.717 E12.01861
G1 X79.959 Y157.096 E12.02744
G1 X79.699 Y156.442 E12.03626
G1 X79.515 Y155.762 E12.0451
G1 X79.409 Y155.066 E12.05393
G1 X79.382 Y154.485 E12.06122
G1 X79.382 Y60.515 E13.23964
G1 X79.422 Y59.812 E13.24847
G1 X79.541 Y59.118 E13.2573
G1 X79.739 Y58.443 E13.26612
G1 X80.011 Y57.794 E13.27494
G1 X80.356 Y57.18 E13.28378
G1 X80.767 Y56.609 E13.2926
G0 F15000 X81.164 Y56.757
G1 F1350 X81.635 Y56.266 E13.30113
G1 X82.16 Y55.832 E13.30967
G1 X82.732 Y55.463 E13.31821
G1 X83.344 Y55.164 E13.32675
G1 X83.986 Y54.939 E13.33528
G1 X84.651 Y54.79 E13.34383
G1 X85.582 Y54.715 E13.35554
G1 X147.552 Y54.715 E14.13267
G1 X148.232 Y54.755 E14.14121
G1 X148.902 Y54.874 E14.14974
G1 X149.554 Y55.071 E14.15829
G1 X150.178 Y55.343 E14.16682
G1 X150.766 Y55.687 E14.17536
G1 X151.31 Y56.097 E14.18391
G1 X151.801 Y56.568 E14.19244
G1 X152.235 Y57.093 E14.20098
G1 X152.604 Y57.665 E14.20952
G1 X152.903 Y58.277 E14.21806
G1 X153.128 Y58.919 E14.22659
G1 X153.277 Y59.584 E14.23514
G1 X153.352 Y60.515 E14.24685
G1 X153.352 Y154.485 E15.42527
G1 X153.312 Y155.165 E15.43381
G1 X153.193 Y155.835 E15.44234
G1 X152.996 Y156.487 E15.45089
G1 X152.724 Y157.111 E15.45942
G1 X152.38 Y157.699 E15.46796
G1 X151.97 Y158.243 E15.47651
G1 X151.499 Y158.734 E15.48504
G1 X150.974 Y159.168 E15.49358
G1 X150.402 Y159.537 E15.50212
G1 X149.79 Y159.836 E15.51066
G1 X149.148 Y160.061 E15.51919
G1 X148.483 Y160.21 E15.52774
G1 X147.552 Y160.285 E15.53945
G1 X85.582 Y160.285 E16.31658
G1 X84.902 Y160.245 E16.32512
G1 X84.232 Y160.126 E16.33365
G1 X83.58 Y159.929 E16.34219
G1 X82.956 Y159.657 E16.35073
G1 X82.368 Y159.313 E16.35927
G1 X81.824 Y158.903 E16.36781
G1 X81.333 Y158.432 E16.37635
G1 X80.899 Y157.907 E16.38489
G1 X80.53 Y157.335 E16.39343
G1 X80.231 Y156.723 E16.40197
G1 X80.006 Y156.081 E16.4105
G1 X79.857 Y155.416 E16.41904
G1 X79.782 Y154.485 E16.43076
G1 X79.782 Y60.515 E17.60918
G1 X79.822 Y59.835 E17.61772
G1 X79.941 Y59.165 E17.62625
G1 X80.138 Y58.513 E17.63479
G1 X80.41 Y57.889 E17.64333
G1 X80.754 Y57.301 E17.65187
G1 X81.164 Y56.757 E17.66041
G0 F15000 X81.56 Y56.912
G1 F1350 X82.027 Y56.45 E17.66865
G1 X82.547 Y56.049 E17.67689
G1 X83.111 Y55.713 E17.68512
G1 X83.713 Y55.449 E17.69336
G1 X84.342 Y55.259 E17.7016
G1 X84.989 Y55.148 E17.70984
G1 X85.582 Y55.115 E17.71728
G1 X147.552 Y55.115 E18.49441
G1 X148.208 Y55.155 E18.50265
G1 X148.854 Y55.274 E18.51089
G1 X149.481 Y55.471 E18.51913
G1 X150.079 Y55.743 E18.52737
G1 X150.64 Y56.085 E18.53561
G1 X151.155 Y56.493 E18.54385
G1 X151.617 Y56.96 E18.55209
G1 X152.018 Y57.48 E18.56032
G1 X152.354 Y58.044 E18.56855
G1 X152.618 Y58.646 E18.5768
G1 X152.808 Y59.275 E18.58504
G1 X152.919 Y59.922 E18.59327
G1 X152.952 Y60.515 E18.60072
G1 X152.952 Y154.485 E19.77914
G1 X152.912 Y155.141 E19.78738
G1 X152.793 Y155.787 E19.79561
G1 X152.596 Y156.414 E19.80386
G1 X152.324 Y157.012 E19.81209
G1 X151.982 Y157.573 E19.82033
G1 X151.574 Y158.088 E19.82857
G1 X151.107 Y158.55 E19.83681
G1 X150.587 Y158.951 E19.84505
G1 X150.023 Y159.287 E19.85328
G1 X149.421 Y159.551 E19.86152
G1 X148.792 Y159.741 E19.86976
G1 X148.145 Y159.852 E19.87799
G1 X147.552 Y159.885 E19.88544
G1 X85.582 Y159.885 E20.66257
G1 X84.926 Y159.845 E20.67081
G1 X84.28 Y159.726 E20.67905
G1 X83.653 Y159.529 E20.68729
G1 X83.055 Y159.257 E20.69553
G1 X82.494 Y158.915 E20.70377
G1 X81.979 Y158.507 E20.71201
G1 X81.517 Y158.04 E20.72025
G1 X81.116 Y157.52 E20.72848
G1 X80.78 Y156.956 E20.73671
G1 X80.516 Y156.354 E20.74496
G1 X80.326 Y155.725 E20.7532
G1 X80.215 Y155.078 E20.76143
G1 X80.182 Y154.485 E20.76888
G1 X80.182 Y60.515 E21.94729
G1 X80.222 Y59.859 E21.95554
G1 X80.341 Y59.213 E21.96377
G1 X80.538 Y58.586 E21.97202
G1 X80.81 Y57.988 E21.98025
G1 X81.152 Y57.427 E21.98849
G1 X81.56 Y56.912 E21.99673
G0 F15000 X81.955 Y57.074
G1 F1350 X82.418 Y56.644 E22.00466
G1 X82.932 Y56.275 E22.01259
G1 X83.488 Y55.975 E22.02051
G1 X84.077 Y55.747 E22.02843
G1 X84.691 Y55.595 E22.03637
G1 X85.582 Y55.515 E22.04759
G1 X147.552 Y55.515 E22.82471
G1 X148.183 Y55.555 E22.83264
G1 X148.804 Y55.674 E22.84057
G1 X149.404 Y55.871 E22.84849
G1 X149.976 Y56.142 E22.85643
G1 X150.508 Y56.482 E22.86434
G1 X150.993 Y56.888 E22.87228
G1 X151.423 Y57.351 E22.8802
G1 X151.792 Y57.865 E22.88814
G1 X152.092 Y58.421 E22.89606
G1 X152.32 Y59.01 E22.90398
G1 X152.472 Y59.624 E22.91191
G1 X152.552 Y60.515 E22.92313
G1 X152.552 Y154.485 E24.10155
G1 X152.512 Y155.116 E24.10948
G1 X152.393 Y155.737 E24.11741
G1 X152.196 Y156.337 E24.12533
G1 X151.925 Y156.909 E24.13326
G1 X151.585 Y157.441 E24.14118
G1 X151.179 Y157.926 E24.14911
G1 X150.716 Y158.356 E24.15704
G1 X150.202 Y158.725 E24.16497
G1 X149.646 Y159.025 E24.17289
G1 X149.057 Y159.253 E24.18081
G1 X148.443 Y159.405 E24.18875
G1 X147.552 Y159.485 E24.19996
G1 X85.582 Y159.485 E24.97709
G1 X84.951 Y159.445 E24.98502
G1 X84.33 Y159.326 E24.99295
G1 X83.73 Y159.129 E25.00087
G1 X83.158 Y158.858 E25.00881
G1 X82.626 Y158.518 E25.01672
G1 X82.141 Y158.112 E25.02466
G1 X81.711 Y157.649 E25.03258
G1 X81.342 Y157.135 E25.04051
G1 X81.042 Y156.579 E25.04844
G1 X80.814 Y155.99 E25.05636
G1 X80.662 Y155.376 E25.06429
G1 X80.582 Y154.485 E25.07551
G1 X80.582 Y60.515 E26.25393
G1 X80.622 Y59.884 E26.26186
G1 X80.741 Y59.263 E26.26978
G1 X80.938 Y58.663 E26.2777
G1 X81.209 Y58.091 E26.28564
G1 X81.549 Y57.559 E26.29356
G1 X81.955 Y57.074 E26.30149
G0 F15000 X82.349 Y57.243
G1 F1350 X82.807 Y56.846 E26.30909
G1 X83.314 Y56.513 E26.3167
G1 X83.86 Y56.249 E26.3243
G1 X84.436 Y56.06 E26.33191
G1 X85.032 Y55.948 E26.33951
G1 X85.582 Y55.915 E26.34642
G1 X147.552 Y55.915 E27.12355
G1 X148.157 Y55.955 E27.13115
G1 X148.751 Y56.074 E27.13875
G1 X149.325 Y56.27 E27.14635
G1 X149.868 Y56.541 E27.15396
G1 X150.371 Y56.88 E27.16157
G1 X150.824 Y57.282 E27.16917
G1 X151.221 Y57.74 E27.17677
G1 X151.554 Y58.247 E27.18437
G1 X151.818 Y58.793 E27.19198
G1 X152.007 Y59.369 E27.19958
G1 X152.119 Y59.965 E27.20719
G1 X152.152 Y60.515 E27.2141
G1 X152.152 Y154.485 E28.39251
G1 X152.112 Y155.09 E28.40012
G1 X151.993 Y155.684 E28.40771
G1 X151.797 Y156.258 E28.41532
G1 X151.526 Y156.801 E28.42293
G1 X151.187 Y157.304 E28.43054
G1 X150.785 Y157.757 E28.43813
G1 X150.327 Y158.154 E28.44573
G1 X149.82 Y158.487 E28.45334
G1 X149.274 Y158.751 E28.46095
G1 X148.698 Y158.94 E28.46855
G1 X148.102 Y159.052 E28.47615
G1 X147.552 Y159.085 E28.48306
G1 X85.582 Y159.085 E29.26019
G1 X84.977 Y159.045 E29.26779
G1 X84.383 Y158.926 E29.27539
G1 X83.809 Y158.73 E29.283
G1 X83.266 Y158.459 E29.29061
G1 X82.763 Y158.12 E29.29821
G1 X82.31 Y157.718 E29.30581
G1 X81.913 Y157.26 E29.31341
G1 X81.58 Y156.753 E29.32102
G1 X81.316 Y156.207 E29.32862
G1 X81.127 Y155.631 E29.33622
G1 X81.015 Y155.035 E29.34383
G1 X80.982 Y154.485 E29.35074
G1 X80.982 Y60.515 E30.52916
G1 X81.022 Y59.91 E30.53676
G1 X81.141 Y59.316 E30.54436
G1 X81.337 Y58.742 E30.55196
G1 X81.608 Y58.199 E30.55957
G1 X81.947 Y57.696 E30.56718
G1 X82.349 Y57.243 E30.57478
G0 F15000 X82.742 Y57.421
G1 F1350 X83.195 Y57.059 E30.58205
G1 X83.693 Y56.764 E30.58931
G1 X84.227 Y56.539 E30.59657
G1 X84.787 Y56.391 E30.60384
G1 X85.582 Y56.315 E30.61385
G1 X147.552 Y56.315 E31.39098
G1 X148.13 Y56.355 E31.39824
G1 X148.697 Y56.474 E31.40551
G1 X149.242 Y56.67 E31.41277
G1 X149.755 Y56.939 E31.42004
G1 X150.226 Y57.276 E31.4273
G1 X150.646 Y57.675 E31.43456
G1 X151.008 Y58.128 E31.44184
G1 X151.303 Y58.626 E31.44909
G1 X151.528 Y59.16 E31.45636
G1 X151.676 Y59.72 E31.46362
G1 X151.752 Y60.515 E31.47364
G1 X151.752 Y154.485 E32.65206
G1 X151.712 Y155.063 E32.65932
G1 X151.593 Y155.63 E32.66659
G1 X151.397 Y156.175 E32.67385
G1 X151.128 Y156.688 E32.68112
G1 X150.791 Y157.159 E32.68838
G1 X150.392 Y157.579 E32.69564
G1 X149.939 Y157.941 E32.70292
G1 X149.441 Y158.236 E32.71017
G1 X148.907 Y158.461 E32.71744
G1 X148.347 Y158.609 E32.7247
G1 X147.552 Y158.685 E32.73472
G1 X85.582 Y158.685 E33.51185
G1 X85.004 Y158.645 E33.51911
G1 X84.437 Y158.526 E33.52638
G1 X83.892 Y158.33 E33.53364
G1 X83.379 Y158.061 E33.5409
G1 X82.908 Y157.724 E33.54817
G1 X82.488 Y157.325 E33.55543
G1 X82.126 Y156.872 E33.5627
G1 X81.831 Y156.374 E33.56996
G1 X81.606 Y155.84 E33.57723
G1 X81.458 Y155.28 E33.58449
G1 X81.382 Y154.485 E33.59451
G1 X81.382 Y60.515 E34.77293
G1 X81.422 Y59.937 E34.78019
G1 X81.541 Y59.37 E34.78746
G1 X81.737 Y58.825 E34.79472
G1 X82.006 Y58.312 E34.80198
G1 X82.343 Y57.841 E34.80925
G1 X82.742 Y57.421 E34.81651
G0 F15000 X83.134 Y57.609
G1 F1350 X83.58 Y57.285 E34.82343
G1 X84.068 Y57.03 E34.83033
G1 X84.588 Y56.847 E34.83724
G1 X85.268 Y56.715 E34.84593
G1 X147.552 Y56.715 E35.62699
G1 X148.102 Y56.755 E35.63391
G1 X148.64 Y56.874 E35.64082
G1 X149.155 Y57.07 E35.64773
G1 X149.636 Y57.338 E35.65463
G1 X150.074 Y57.672 E35.66154
G1 X150.458 Y58.067 E35.66845
G1 X150.782 Y58.513 E35.67536
G1 X151.037 Y59.001 E35.68227
G1 X151.22 Y59.521 E35.68918
G1 X151.352 Y60.201 E35.69787
G1 X151.352 Y154.485 E36.88022
G1 X151.312 Y155.035 E36.88714
G1 X151.193 Y155.573 E36.89405
G1 X150.997 Y156.088 E36.90096
G1 X150.729 Y156.569 E36.90786
G1 X150.395 Y157.007 E36.91477
G1 X150 Y157.391 E36.92168
G1 X149.554 Y157.715 E36.92859
G1 X149.066 Y157.97 E36.9355
G1 X148.546 Y158.153 E36.94241
G1 X147.866 Y158.285 E36.9511
G1 X85.582 Y158.285 E37.73216
G1 X85.032 Y158.245 E37.73908
G1 X84.494 Y158.126 E37.74599
G1 X83.979 Y157.93 E37.7529
G1 X83.498 Y157.662 E37.7598
G1 X83.06 Y157.328 E37.76671
G1 X82.676 Y156.933 E37.77362
G1 X82.352 Y156.487 E37.78053
G1 X82.097 Y155.999 E37.78744
G1 X81.914 Y155.479 E37.79435
G1 X81.782 Y154.799 E37.80304
G1 X81.782 Y60.515 E38.98539
G1 X81.822 Y59.965 E38.99231
G1 X81.941 Y59.427 E38.99922
G1 X82.137 Y58.912 E39.00613
G1 X82.405 Y58.431 E39.01303
G1 X82.739 Y57.993 E39.01994
G1 X83.134 Y57.609 E39.02685
G0 F15000 X83.524 Y57.809
G1 F1350 X83.962 Y57.526 E39.03339
G1 X84.437 Y57.313 E39.03992
G1 X84.94 Y57.176 E39.04645
G1 X85.582 Y57.115 E39.05454
G1 X147.552 Y57.115 E39.83167
G1 X148.072 Y57.155 E39.83821
G1 X148.579 Y57.274 E39.84474
G1 X149.062 Y57.469 E39.85127
G1 X149.51 Y57.735 E39.8578
G1 X149.912 Y58.067 E39.86434
