;START_OF_HEADER
;HEADER_VERSION:0.1
;FLAVOR:Griffin
;GENERATOR.NAME:Cura_SteamEngine
;GENERATOR.VERSION:5.2.2
;GENERATOR.BUILD_DATE:2023-01-24
;TARGET_MACHINE.NAME:Ultimaker 3
;EXTRUDER_TRAIN.0.INITIAL_TEMPERATURE:200
;EXTRUDER_TRAIN.0.MATERIAL.VOLUME_USED:9190
;EXTRUDER_TRAIN.0.MATERIAL.GUID:506c9f0d-e3aa-4bd4-b2d2-23e2425b1aa9
;EXTRUDER_TRAIN.0.NOZZLE.DIAMETER:0.4
;EXTRUDER_TRAIN.0.NOZZLE.NAME:AA 0.4
;BUILD_PLATE.INITIAL_TEMPERATURE:60
;PRINT.TIME:5544
;PRINT.GROUPS:1
;PRINT.SIZE.MIN.X:9
;PRINT.SIZE.MIN.Y:6
;PRINT.SIZE.MIN.Z:0.2
;PRINT.SIZE.MAX.X:166.552
;PRINT.SIZE.MAX.Y:184.485
;PRINT.SIZE.MAX.Z:2
;SLICE_UUID:c72ddbb0-d658-4321-9fba-e3ed307706b5
;END_OF_HEADER
;Generated with Cura_SteamEngine 5.2.2
T0
M82 ;absolute extrusion mode

G92 E0
M109 S200
G0 F15000 X9 Y6 Z2
G280
G1 F1500 E-6.5
;LAYER_COUNT:6
;LAYER:0
M106 S255
M204 S1000
M205 X20 Y20
G0 F15000 X67.212 Y34.612 Z0.2
;TYPE:SKIRT
G1 F1500 E0
G1 F1350 X67.559 Y33.949 E0.00938
G1 X67.974 Y33.326 E0.01877
G1 X68.453 Y32.752 E0.02815
G1 X68.99 Y32.231 E0.03753
G1 X69.58 Y31.772 E0.0469
G1 X70.216 Y31.377 E0.05629
G1 X70.89 Y31.053 E0.06567
G1 X71.595 Y30.803 E0.07505
G1 X72.323 Y30.629 E0.08444
G1 X73.065 Y30.534 E0.09382
G1 X73.582 Y30.515 E0.10031
G1 X159.552 Y30.515 E1.1784
G1 X160.299 Y30.555 E1.18778
G1 X161.037 Y30.674 E1.19716
G1 X161.759 Y30.872 E1.20655
G1 X162.455 Y31.145 E1.21592
G1 X163.118 Y31.492 E1.22531
G1 X163.741 Y31.907 E1.23469
G1 X164.315 Y32.386 E1.24407
G1 X164.836 Y32.923 E1.25345
G1 X165.295 Y33.513 E1.26282
G1 X165.69 Y34.149 E1.27221
G1 X166.014 Y34.823 E1.28159
G1 X166.264 Y35.528 E1.29097
G1 X166.438 Y36.256 E1.30036
G1 X166.533 Y36.998 E1.30974
G1 X166.552 Y37.515 E1.31623
G1 X166.552 Y91.485 E1.99303
G1 X166.512 Y92.232 E2.00241
G1 X166.393 Y92.97 E2.01179
G1 X166.195 Y93.692 E2.02117
G1 X165.922 Y94.388 E2.03055
G1 X165.575 Y95.051 E2.03993
G1 X165.16 Y95.674 E2.04932
G1 X164.681 Y96.248 E2.0587
G1 X164.144 Y96.769 E2.06808
G1 X163.554 Y97.228 E2.07745
G1 X162.918 Y97.623 E2.08684
G1 X162.244 Y97.947 E2.09622
G1 X161.539 Y98.197 E2.1056
G1 X160.811 Y98.371 E2.11499
G1 X160.069 Y98.466 E2.12437
G1 X159.552 Y98.485 E2.13086
G1 X73.582 Y98.485 E3.20895
G1 X72.835 Y98.445 E3.21833
G1 X72.097 Y98.326 E3.22771
G1 X71.375 Y98.128 E3.2371
G1 X70.679 Y97.855 E3.24647
G1 X70.016 Y97.508 E3.25586
G1 X69.393 Y97.093 E3.26524
G1 X68.819 Y96.614 E3.27462
G1 X68.298 Y96.077 E3.284
G1 X67.839 Y95.487 E3.29338
G1 X67.444 Y94.851 E3.30276
G1 X67.12 Y94.177 E3.31214
G1 X66.87 Y93.472 E3.32152
G1 X66.696 Y92.744 E3.33091
G1 X66.601 Y92.002 E3.34029
G1 X66.582 Y91.485 E3.34678
G1 X66.582 Y37.515 E4.02358
G1 X66.622 Y36.768 E4.03296
G1 X66.741 Y36.03 E4.04234
G1 X66.939 Y35.308 E4.05173
G1 X67.212 Y34.612 E4.0611
G0 F15000 X67.612 Y34.701
G1 F1350 X67.957 Y34.062 E4.07021
G1 X68.371 Y33.465 E4.07932
G1 X68.847 Y32.917 E4.08842
G1 X69.381 Y32.424 E4.09753
G1 X69.966 Y31.994 E4.10664
G1 X70.595 Y31.63 E4.11575
G1 X71.26 Y31.337 E4.12487
G1 X71.953 Y31.119 E4.13398
G1 X72.665 Y30.979 E4.14308
G1 X73.582 Y30.915 E4.1546
G1 X159.552 Y30.915 E5.2327
G1 X160.277 Y30.955 E5.2418
G1 X160.994 Y31.074 E5.25092
G1 X161.693 Y31.272 E5.26003
G1 X162.366 Y31.545 E5.26914
G1 X163.005 Y31.89 E5.27824
G1 X163.602 Y32.304 E5.28735
G1 X164.15 Y32.78 E5.29646
G1 X164.643 Y33.314 E5.30557
G1 X165.073 Y33.899 E5.31468
G1 X165.437 Y34.528 E5.32379
G1 X165.73 Y35.193 E5.3329
G1 X165.948 Y35.886 E5.34201
G1 X166.088 Y36.598 E5.35111
G1 X166.152 Y37.515 E5.36264
G1 X166.152 Y91.485 E6.03944
G1 X166.112 Y92.21 E6.04855
G1 X165.993 Y92.927 E6.05766
G1 X165.795 Y93.626 E6.06677
G1 X165.522 Y94.299 E6.07588
G1 X165.177 Y94.938 E6.08499
G1 X164.763 Y95.535 E6.0941
G1 X164.287 Y96.083 E6.1032
G1 X163.753 Y96.576 E6.11232
G1 X163.168 Y97.006 E6.12142
G1 X162.539 Y97.37 E6.13053
G1 X161.874 Y97.663 E6.13965
G1 X161.181 Y97.881 E6.14876
G1 X160.469 Y98.021 E6.15786
G1 X159.552 Y98.085 E6.16938
G1 X73.582 Y98.085 E7.24748
G1 X72.857 Y98.045 E7.25659
G1 X72.14 Y97.926 E7.2657
G1 X71.441 Y97.728 E7.27481
G1 X70.768 Y97.455 E7.28392
G1 X70.129 Y97.11 E7.29302
G1 X69.532 Y96.696 E7.30214
G1 X68.984 Y96.22 E7.31124
G1 X68.491 Y95.686 E7.32035
G1 X68.061 Y95.101 E7.32946
G1 X67.697 Y94.472 E7.33857
G1 X67.404 Y93.807 E7.34768
G1 X67.186 Y93.114 E7.35679
G1 X67.046 Y92.402 E7.36589
G1 X66.982 Y91.485 E7.37742
G1 X66.982 Y37.515 E8.05422
G1 X67.022 Y36.79 E8.06333
G1 X67.141 Y36.073 E8.07244
G1 X67.339 Y35.374 E8.08156
G1 X67.612 Y34.701 E8.09066
G0 F15000 X68.011 Y34.794
G1 F1350 X68.356 Y34.18 E8.0995
G1 X68.767 Y33.609 E8.10832
G1 X69.241 Y33.088 E8.11715
G1 X69.771 Y32.624 E8.12598
G1 X70.35 Y32.224 E8.13481
G1 X70.971 Y31.892 E8.14364
G1 X71.625 Y31.632 E8.15247
G1 X72.305 Y31.448 E8.1613
G1 X73.001 Y31.342 E8.17013
G1 X73.582 Y31.315 E8.17742
G1 X159.552 Y31.315 E9.25552
G1 X160.255 Y31.355 E9.26435
G1 X160.949 Y31.474 E9.27318
G1 X161.624 Y31.672 E9.282
G1 X162.273 Y31.944 E9.29082
G1 X162.887 Y32.289 E9.29966
G1 X163.458 Y32.7 E9.30848
G1 X163.979 Y33.174 E9.31731
G1 X164.443 Y33.704 E9.32615
G1 X164.843 Y34.283 E9.33497
G1 X165.175 Y34.904 E9.3438
G1 X165.435 Y35.558 E9.35263
G1 X165.619 Y36.238 E9.36146
G1 X165.725 Y36.934 E9.37029
G1 X165.752 Y37.515 E9.37758
G1 X165.752 Y91.485 E10.05439
G1 X165.712 Y92.188 E10.06322
G1 X165.593 Y92.882 E10.07205
G1 X165.395 Y93.557 E10.08087
G1 X165.123 Y94.206 E10.08969
G1 X164.778 Y94.82 E10.09853
G1 X164.367 Y95.391 E10.10735
G1 X163.893 Y95.912 E10.11618
G1 X163.363 Y96.376 E10.12501
G1 X162.784 Y96.776 E10.13384
G1 X162.163 Y97.108 E10.14267
G1 X161.509 Y97.368 E10.1515
G1 X160.829 Y97.552 E10.16033
G1 X160.133 Y97.658 E10.16916
G1 X159.552 Y97.685 E10.17645
G1 X73.582 Y97.685 E11.25455
G1 X72.879 Y97.645 E11.26338
G1 X72.185 Y97.526 E11.27221
G1 X71.51 Y97.328 E11.28103
G1 X70.861 Y97.056 E11.28985
G1 X70.247 Y96.711 E11.29869
G1 X69.676 Y96.3 E11.30751
G1 X69.155 Y95.826 E11.31634
G1 X68.691 Y95.296 E11.32518
G1 X68.291 Y94.717 E11.334
G1 X67.959 Y94.096 E11.34283
G1 X67.699 Y93.442 E11.35166
G1 X67.515 Y92.762 E11.36049
G1 X67.409 Y92.066 E11.36932
G1 X67.382 Y91.485 E11.37661
G1 X67.382 Y37.515 E12.05342
G1 X67.422 Y36.812 E12.06225
G1 X67.541 Y36.118 E12.07108
G1 X67.739 Y35.443 E12.0799
G1 X68.011 Y34.794 E12.08872
G0 F15000 X68.41 Y34.889
G1 F1350 X68.754 Y34.301 E12.09727
G1 X69.164 Y33.757 E12.10581
G1 X69.635 Y33.266 E12.11434
G1 X70.16 Y32.832 E12.12288
G1 X70.732 Y32.463 E12.13142
G1 X71.344 Y32.164 E12.13996
G1 X71.986 Y31.939 E12.14849
G1 X72.651 Y31.79 E12.15704
G1 X73.582 Y31.715 E12.16875
G1 X159.552 Y31.715 E13.24685
G1 X160.232 Y31.755 E13.25539
G1 X160.902 Y31.874 E13.26392
G1 X161.554 Y32.071 E13.27246
G1 X162.178 Y32.343 E13.281
G1 X162.766 Y32.687 E13.28954
G1 X163.31 Y33.097 E13.29809
G1 X163.801 Y33.568 E13.30662
G1 X164.235 Y34.093 E13.31516
G1 X164.604 Y34.665 E13.3237
G1 X164.903 Y35.277 E13.33224
G1 X165.128 Y35.919 E13.34077
G1 X165.277 Y36.584 E13.34932
G1 X165.352 Y37.515 E13.36103
G1 X165.352 Y91.485 E14.03783
G1 X165.312 Y92.165 E14.04637
G1 X165.193 Y92.835 E14.05491
G1 X164.996 Y93.487 E14.06345
G1 X164.724 Y94.111 E14.07199
G1 X164.38 Y94.699 E14.08053
G1 X163.97 Y95.243 E14.08907
G1 X163.499 Y95.734 E14.0976
G1 X162.974 Y96.168 E14.10615
G1 X162.402 Y96.537 E14.11468
G1 X161.79 Y96.836 E14.12322
G1 X161.148 Y97.061 E14.13175
G1 X160.483 Y97.21 E14.1403
G1 X159.552 Y97.285 E14.15201
G1 X73.582 Y97.285 E15.23011
G1 X72.902 Y97.245 E15.23865
G1 X72.232 Y97.126 E15.24718
G1 X71.58 Y96.929 E15.25573
G1 X70.956 Y96.657 E15.26426
G1 X70.368 Y96.313 E15.2728
G1 X69.824 Y95.903 E15.28135
G1 X69.333 Y95.432 E15.28988
G1 X68.899 Y94.907 E15.29842
G1 X68.53 Y94.335 E15.30696
G1 X68.231 Y93.723 E15.3155
G1 X68.006 Y93.081 E15.32403
G1 X67.857 Y92.416 E15.33258
G1 X67.782 Y91.485 E15.34429
G1 X67.782 Y37.515 E16.02109
G1 X67.822 Y36.835 E16.02964
G1 X67.941 Y36.165 E16.03817
G1 X68.138 Y35.513 E16.04671
G1 X68.41 Y34.889 E16.05525
G0 F15000 X68.81 Y34.988
G1 F1350 X69.152 Y34.427 E16.06349
G1 X69.56 Y33.912 E16.07173
G1 X70.027 Y33.45 E16.07996
G1 X70.547 Y33.049 E16.0882
G1 X71.111 Y32.713 E16.09643
G1 X71.713 Y32.449 E16.10467
G1 X72.342 Y32.259 E16.11291
G1 X72.989 Y32.148 E16.12115
G1 X73.582 Y32.115 E16.12859
G1 X159.552 Y32.115 E17.20669
G1 X160.208 Y32.155 E17.21493
G1 X160.854 Y32.274 E17.22317
G1 X161.481 Y32.471 E17.23141
G1 X162.079 Y32.743 E17.23965
G1 X162.64 Y33.085 E17.24789
G1 X163.155 Y33.493 E17.25613
G1 X163.617 Y33.96 E17.26437
G1 X164.018 Y34.48 E17.2726
G1 X164.354 Y35.044 E17.28083
G1 X164.618 Y35.646 E17.28908
G1 X164.808 Y36.275 E17.29732
G1 X164.919 Y36.922 E17.30555
G1 X164.952 Y37.515 E17.313
G1 X164.952 Y91.485 E17.9898
G1 X164.912 Y92.141 E17.99804
G1 X164.793 Y92.787 E18.00628
G1 X164.596 Y93.414 E18.01452
G1 X164.324 Y94.012 E18.02276
G1 X163.982 Y94.573 E18.031
G1 X163.574 Y95.088 E18.03924
G1 X163.107 Y95.55 E18.04748
G1 X162.587 Y95.951 E18.05571
G1 X162.023 Y96.287 E18.06394
G1 X161.421 Y96.551 E18.07219
G1 X160.792 Y96.741 E18.08043
G1 X160.145 Y96.852 E18.08866
G1 X159.552 Y96.885 E18.09611
G1 X73.582 Y96.885 E19.1742
G1 X72.926 Y96.845 E19.18245
G1 X72.28 Y96.726 E19.19068
G1 X71.653 Y96.529 E19.19892
G1 X71.055 Y96.257 E19.20716
G1 X70.494 Y95.915 E19.2154
G1 X69.979 Y95.507 E19.22364
G1 X69.517 Y95.04 E19.23188
G1 X69.116 Y94.52 E19.24011
G1 X68.78 Y93.956 E19.24835
G1 X68.516 Y93.354 E19.25659
G1 X68.326 Y92.725 E19.26483
G1 X68.215 Y92.078 E19.27306
G1 X68.182 Y91.485 E19.28051
G1 X68.182 Y37.515 E19.95731
G1 X68.222 Y36.859 E19.96556
G1 X68.341 Y36.213 E19.97379
G1 X68.538 Y35.586 E19.98204
G1 X68.81 Y34.988 E19.99027
G0 F15000 X69.209 Y35.091
G1 F1350 X69.549 Y34.559 E19.99819
G1 X69.955 Y34.074 E20.00612
G1 X70.418 Y33.644 E20.01405
G1 X70.932 Y33.275 E20.02198
G1 X71.488 Y32.975 E20.0299
G1 X72.077 Y32.747 E20.03782
G1 X72.691 Y32.595 E20.04576
G1 X73.582 Y32.515 E20.05698
G1 X159.552 Y32.515 E21.13507
G1 X160.183 Y32.555 E21.143
G1 X160.804 Y32.674 E21.15093
G1 X161.404 Y32.871 E21.15885
G1 X161.976 Y33.142 E21.16679
G1 X162.508 Y33.482 E21.1747
G1 X162.993 Y33.888 E21.18264
G1 X163.423 Y34.351 E21.19056
G1 X163.792 Y34.865 E21.19849
G1 X164.092 Y35.421 E21.20642
G1 X164.32 Y36.01 E21.21434
G1 X164.472 Y36.624 E21.22227
G1 X164.552 Y37.515 E21.23349
G1 X164.552 Y91.485 E21.91029
G1 X164.512 Y92.116 E21.91822
G1 X164.393 Y92.737 E21.92615
G1 X164.196 Y93.337 E21.93407
G1 X163.925 Y93.909 E21.94201
G1 X163.585 Y94.441 E21.94992
G1 X163.179 Y94.926 E21.95786
G1 X162.716 Y95.356 E21.96578
G1 X162.202 Y95.725 E21.97371
G1 X161.646 Y96.025 E21.98164
G1 X161.057 Y96.253 E21.98956
G1 X160.443 Y96.405 E21.99749
G1 X159.552 Y96.485 E22.00871
G1 X73.582 Y96.485 E23.0868
G1 X72.951 Y96.445 E23.09473
G1 X72.33 Y96.326 E23.10266
G1 X71.73 Y96.129 E23.11058
G1 X71.158 Y95.858 E23.11852
G1 X70.626 Y95.518 E23.12644
G1 X70.141 Y95.112 E23.13437
G1 X69.711 Y94.649 E23.14229
G1 X69.342 Y94.135 E23.15023
G1 X69.042 Y93.579 E23.15815
G1 X68.814 Y92.99 E23.16607
G1 X68.662 Y92.376 E23.174
G1 X68.582 Y91.485 E23.18522
G1 X68.582 Y37.515 E23.86202
G1 X68.622 Y36.884 E23.86995
G1 X68.741 Y36.263 E23.87788
G1 X68.938 Y35.663 E23.8858
G1 X69.209 Y35.091 E23.89374
G0 F15000 X69.608 Y35.199
G1 F1350 X69.947 Y34.696 E23.90135
G1 X70.349 Y34.243 E23.90894
G1 X70.807 Y33.846 E23.91654
G1 X71.314 Y33.513 E23.92415
G1 X71.86 Y33.249 E23.93175
G1 X72.436 Y33.06 E23.93936
G1 X73.032 Y32.948 E23.94696
G1 X73.582 Y32.915 E23.95387
G1 X159.552 Y32.915 E25.03197
G1 X160.157 Y32.955 E25.03957
G1 X160.751 Y33.074 E25.04717
G1 X161.325 Y33.27 E25.05477
G1 X161.868 Y33.541 E25.06238
G1 X162.371 Y33.88 E25.06999
G1 X162.824 Y34.282 E25.07759
G1 X163.221 Y34.74 E25.08519
G1 X163.554 Y35.247 E25.09279
G1 X163.818 Y35.793 E25.1004
G1 X164.007 Y36.369 E25.108
G1 X164.119 Y36.965 E25.11561
G1 X164.152 Y37.515 E25.12252
G1 X164.152 Y91.485 E25.79932
G1 X164.112 Y92.09 E25.80692
G1 X163.993 Y92.684 E25.81452
G1 X163.797 Y93.258 E25.82213
G1 X163.526 Y93.801 E25.82974
G1 X163.187 Y94.304 E25.83734
G1 X162.785 Y94.757 E25.84494
G1 X162.327 Y95.154 E25.85254
G1 X161.82 Y95.487 E25.86015
G1 X161.274 Y95.751 E25.86775
G1 X160.698 Y95.94 E25.87535
G1 X160.102 Y96.052 E25.88296
G1 X159.552 Y96.085 E25.88987
G1 X73.582 Y96.085 E26.96796
G1 X72.977 Y96.045 E26.97557
G1 X72.383 Y95.926 E26.98316
G1 X71.809 Y95.73 E26.99077
G1 X71.266 Y95.459 E26.99838
G1 X70.763 Y95.12 E27.00599
G1 X70.31 Y94.718 E27.01358
G1 X69.913 Y94.26 E27.02118
G1 X69.58 Y93.753 E27.02879
G1 X69.316 Y93.207 E27.0364
G1 X69.127 Y92.631 E27.044
G1 X69.015 Y92.035 E27.0516
G1 X68.982 Y91.485 E27.05851
G1 X68.982 Y37.515 E27.73532
G1 X69.022 Y36.91 E27.74292
G1 X69.141 Y36.316 E27.75052
G1 X69.337 Y35.742 E27.75812
G1 X69.608 Y35.199 E27.76573
G0 F15000 X70.006 Y35.312
G1 F1350 X70.343 Y34.841 E27.773
G1 X70.742 Y34.421 E27.78026
G1 X71.195 Y34.059 E27.78753
G1 X71.693 Y33.764 E27.79479
G1 X72.227 Y33.539 E27.80206
G1 X72.787 Y33.391 E27.80932
G1 X73.582 Y33.315 E27.81934
G1 X159.552 Y33.315 E28.89743
G1 X160.13 Y33.355 E28.9047
G1 X160.697 Y33.474 E28.91196
G1 X161.242 Y33.67 E28.91923
G1 X161.755 Y33.939 E28.92649
G1 X162.226 Y34.276 E28.93375
G1 X162.646 Y34.675 E28.94102
G1 X163.008 Y35.128 E28.94829
G1 X163.303 Y35.626 E28.95555
G1 X163.528 Y36.16 E28.96281
G1 X163.676 Y36.72 E28.97008
G1 X163.752 Y37.515 E28.98009
G1 X163.752 Y91.485 E29.6569
G1 X163.712 Y92.063 E29.66416
G1 X163.593 Y92.63 E29.67143
G1 X163.397 Y93.175 E29.67869
G1 X163.128 Y93.688 E29.68595
G1 X162.791 Y94.159 E29.69322
G1 X162.392 Y94.579 E29.70048
G1 X161.939 Y94.941 E29.70775
G1 X161.441 Y95.236 E29.71501
G1 X160.907 Y95.461 E29.72228
G1 X160.347 Y95.609 E29.72954
G1 X159.552 Y95.685 E29.73956
G1 X73.582 Y95.685 E30.81765
G1 X73.004 Y95.645 E30.82492
G1 X72.437 Y95.526 E30.83219
G1 X71.892 Y95.33 E30.83945
G1 X71.379 Y95.061 E30.84671
G1 X70.908 Y94.724 E30.85397
G1 X70.488 Y94.325 E30.86124
G1 X70.126 Y93.872 E30.86851
G1 X69.831 Y93.374 E30.87577
G1 X69.606 Y92.84 E30.88304
G1 X69.458 Y92.28 E30.8903
G1 X69.382 Y91.485 E30.90032
G1 X69.382 Y37.515 E31.57712
G1 X69.422 Y36.937 E31.58438
G1 X69.541 Y36.37 E31.59165
G1 X69.737 Y35.825 E31.59891
G1 X70.006 Y35.312 E31.60618
G0 F15000 X70.405 Y35.431
G1 F1350 X70.739 Y34.993 E31.61308
G1 X71.134 Y34.609 E31.61999
G1 X71.58 Y34.285 E31.62691
G1 X72.068 Y34.03 E31.63381
G1 X72.588 Y33.847 E31.64072
G1 X73.268 Y33.715 E31.64941
G1 X159.552 Y33.715 E32.73144
G1 X160.102 Y33.755 E32.73836
G1 X160.64 Y33.874 E32.74527
G1 X161.155 Y34.07 E32.75218
G1 X161.636 Y34.338 E32.75908
G1 X162.074 Y34.672 E32.76599
G1 X162.458 Y35.067 E32.7729
G1 X162.782 Y35.513 E32.77981
G1 X163.037 Y36.001 E32.78672
G1 X163.22 Y36.521 E32.79363
G1 X163.352 Y37.201 E32.80232
G1 X163.352 Y91.485 E33.48306
G1 X163.312 Y92.035 E33.48997
G1 X163.193 Y92.573 E33.49688
G1 X162.997 Y93.088 E33.50379
G1 X162.729 Y93.569 E33.5107
G1 X162.395 Y94.007 E33.51761
G1 X162 Y94.391 E33.52452
G1 X161.554 Y94.715 E33.53143
G1 X161.066 Y94.97 E33.53833
G1 X160.546 Y95.153 E33.54525
G1 X159.866 Y95.285 E33.55393
G1 X73.582 Y95.285 E34.63597
G1 X73.032 Y95.245 E34.64288
G1 X72.494 Y95.126 E34.64979
G1 X71.979 Y94.93 E34.6567
G1 X71.498 Y94.662 E34.66361
G1 X71.06 Y94.328 E34.67051
G1 X70.676 Y93.933 E34.67742
G1 X70.352 Y93.487 E34.68434
G1 X70.097 Y92.999 E34.69124
G1 X69.914 Y92.479 E34.69815
G1 X69.782 Y91.799 E34.70684
G1 X69.782 Y37.515 E35.38758
G1 X69.822 Y36.965 E35.3945
G1 X69.941 Y36.427 E35.40141
G1 X70.137 Y35.912 E35.40832
G1 X70.405 Y35.431 E35.41522
G0 F15000 X70.802 Y35.557
G1 F1350 X71.134 Y35.155 E35.42176
G1 X71.524 Y34.809 E35.4283
G1 X71.962 Y34.526 E35.43484
G1 X72.437 Y34.313 E35.44137
G1 X72.94 Y34.176 E35.4479
G1 X73.582 Y34.115 E35.45599
G1 X159.552 Y34.115 E36.53409
G1 X160.072 Y34.155 E36.54063
G1 X160.579 Y34.274 E36.54716
G1 X161.062 Y34.469 E36.55369
G1 X161.51 Y34.735 E36.56022
G1 X161.912 Y35.067 E36.56676
G1 X162.258 Y35.457 E36.5733
G1 X162.541 Y35.895 E36.57984
G1 X162.754 Y36.37 E36.58637
G1 X162.891 Y36.873 E36.5929
G1 X162.952 Y37.515 E36.60099
G1 X162.952 Y91.485 E37.2778
G1 X162.912 Y92.005 E37.28434
